assets/features/channel/southeast-asia1/china-bank-philippines.svg

<svg width="80" height="80" viewBox="0 0 80 80" fill="none" xmlns="http://www.w3.org/2000/svg">
<rect width="80" height="80" rx="8" fill="#FF0201"/>
<path d="M39.9865 20C44.8889 20 49.7912 20 54.6936 20C55.798 20 56.8216 20.2424 57.7374 20.862C59.1919 21.8586 59.9461 23.2593 59.9461 25.037C59.9461 28.5118 59.9461 31.9596 59.9461 35.4343C59.9461 36.6195 59.1919 37.5892 58.0606 37.8855C57.8451 37.9394 57.6027 37.9663 57.3872 37.9663C55.3401 37.9663 53.2929 37.9663 51.2189 37.9663C51.0842 37.9663 50.8956 38.0471 50.7879 37.8586C50.6801 37.67 50.8956 37.5892 50.9764 37.4815C51.2997 37.0505 51.4343 36.5657 51.4613 36.0539C51.4613 34.4916 51.5152 32.9562 51.4613 31.3939C51.4343 29.9933 50.2222 28.7273 48.8485 28.5387C48.5791 28.5118 48.3098 28.4848 48.0404 28.4848C41.9529 28.4848 35.8653 28.4848 29.7778 28.4848C29.697 28.4848 29.6162 28.4848 29.5084 28.4848C28.835 28.5118 28.4579 28.8889 28.4579 29.5623C28.4579 30.8822 28.4579 32.1751 28.4579 33.495C28.4579 39.0707 28.4579 44.6465 28.4579 50.2222C28.4579 50.3569 28.4579 50.5185 28.4579 50.6532C28.4848 51.165 28.862 51.5152 29.3737 51.5421C29.4545 51.5421 29.5354 51.5421 29.6431 51.5421C35.8384 51.5421 42.0606 51.5421 48.2559 51.5421C49.899 51.5421 51.165 50.4916 51.4613 48.9024C51.4882 48.7407 51.4882 48.5791 51.4882 48.4444C51.4882 47.0168 51.4882 45.5892 51.4882 44.1616C51.4882 43.8653 51.4613 43.569 51.3805 43.2727C51.2997 42.9495 51.165 42.6532 50.8956 42.4377C50.8148 42.3569 50.7609 42.2761 50.7879 42.1684C50.8148 42.0606 50.9226 42.0337 51.0303 42.0337C51.0842 42.0337 51.1111 42.0337 51.165 42.0337C53.266 42.0337 55.367 42.0337 57.4411 42.0337C58.5455 42.0337 59.4613 42.734 59.8115 43.7576C59.8923 44.0269 59.9461 44.2694 59.9461 44.5657C59.9461 48.0673 59.9461 51.5421 59.9461 55.0438C59.9461 57.495 58.0606 59.6229 55.6094 59.9461C55.3131 59.9731 55.0438 60 54.7475 60C44.862 60 34.9764 60 25.1178 60C22.5589 60 20.5118 58.303 20.0539 55.798C20 55.4748 20 55.1515 20 54.8283C20 44.9428 20 35.0572 20 25.1987C20 22.6936 21.697 20.5657 24.1481 20.1077C24.5522 20.0269 24.9293 20.0269 25.3333 20.0269C30.2357 20.0269 35.1111 20.0269 40.0135 20.0269L39.9865 20Z" fill="white"/>
<path d="M32.3098 39.9264C32.3098 37.7715 32.3098 35.5897 32.3098 33.4348C32.3098 33.327 32.3098 33.2193 32.3098 33.0846C32.3098 32.6267 32.66 32.2765 33.1179 32.2227C33.1987 32.2227 33.2795 32.2227 33.3873 32.2227C37.4007 32.2227 41.4411 32.2227 45.4546 32.2227C46.0741 32.2227 46.6398 32.4112 47.0708 32.8691C47.4479 33.2462 47.6633 33.7041 47.6633 34.2429C47.6633 34.8085 47.6633 35.3472 47.6633 35.9129C47.6364 36.9365 46.8283 37.7715 45.8048 37.8792C45.6431 37.8792 45.4546 37.8792 45.293 37.8792C43.0842 37.8792 40.8755 37.8792 38.6667 37.8792C38.559 37.8792 38.4782 37.8792 38.3704 37.8792C37.9394 37.8792 37.9933 37.8792 37.9933 38.2294C37.9933 38.7412 37.9933 39.253 37.9933 39.7647C37.9933 40.3304 37.9933 40.8961 37.9933 41.4887C37.9933 42.0004 37.9394 41.9196 38.4243 41.9196C39.9327 41.9196 41.4142 41.9196 42.9226 41.9196C43.7846 41.9196 44.6734 41.9196 45.5354 41.9196C46.6128 41.8927 47.6903 42.7546 47.6903 44.0476C47.6903 44.5324 47.6903 45.0173 47.6903 45.5021C47.6903 46.6873 46.7745 47.5762 45.5893 47.5762C41.495 47.5762 37.4007 47.5762 33.3064 47.5762C32.66 47.5762 32.3368 47.253 32.3368 46.6065C32.3368 44.3708 32.3368 42.1351 32.3368 39.8994L32.3098 39.9264Z" fill="white"/>
</svg>

<svg xmlns="http://www.w3.org/2000/svg" width="80" height="80" fill="none" viewBox="0 0 80 80"><rect width="80" height="80" fill="#ff0201" rx="8"/><path fill="#fff" d="M39.987 20h14.707c1.104 0 2.128.242 3.043.862 1.455.997 2.21 2.397 2.21 4.175v10.397c0 1.186-.755 2.155-1.886 2.452-.216.053-.458.08-.674.08H51.22c-.135 0-.323.081-.431-.107-.108-.189.108-.27.188-.378.324-.43.458-.915.485-1.427 0-1.562.054-3.098 0-4.66-.027-1.4-1.239-2.667-2.612-2.855-.27-.027-.54-.054-.809-.054H29.508c-.673.027-1.05.404-1.05 1.077v21.091c.027.512.404.862.916.89h18.882c1.643 0 2.909-1.051 3.205-2.64.027-.162.027-.324.027-.459v-4.282c0-.297-.027-.593-.108-.89-.08-.322-.215-.619-.484-.834-.081-.081-.135-.162-.108-.27.027-.107.135-.134.242-.134h6.411c1.104 0 2.02.7 2.37 1.724.081.269.135.511.135.808v10.478c0 2.451-1.885 4.579-4.337 4.902-.296.027-.565.054-.861.054h-29.63c-2.56 0-4.606-1.697-5.064-4.202-.054-.323-.054-.647-.054-.97v-29.63c0-2.504 1.697-4.632 4.148-5.09.404-.081.781-.081 1.185-.081h14.68z"/><path fill="#fff" d="M32.31 39.926v-6.841c0-.458.35-.809.808-.862h12.337c.62 0 1.185.188 1.616.646.377.377.592.835.592 1.374v1.67c-.027 1.024-.835 1.859-1.858 1.966H38.37c-.43 0-.377 0-.377.35v3.26c0 .511-.054.43.431.43h7.111a2.12 2.12 0 0 1 2.155 2.129v1.454c0 1.185-.915 2.074-2.1 2.074H33.305q-.97 0-.97-.97V39.9z"/></svg>
